;FLAVOR:Marlin
;TIME:2485
;Filament used: 1.03911m
;Layer height: 0.2
;MINX:52.7
;MINY:42.962
;MINZ:0.2
;MAXX:182.3
;MAXY:192.038
;MAXZ:0.4
;Generated with Cura_SteamEngine 4.9.0
M140 S50
M105
M190 S50
M104 S200
M105
M109 S200
M82 ;absolute extrusion mode
; Ender 3 Custom Start G-code
G92 E0 ; Reset Extruder
G28 ; Home all axes
G1 Z2.0 F3000 ; Move Z Axis up little to prevent scratching of Heat Bed
G1 X0.1 Y20 Z0.3 F5000.0 ; Move to start position
G1 X0.1 Y200.0 Z0.3 F1500.0 E15 ; Draw the first line
G1 X0.4 Y200.0 Z0.3 F5000.0 ; Move to side a little
G1 X0.4 Y20 Z0.3 F1500.0 E30 ; Draw the second line
G92 E0 ; Reset Extruder
G1 Z2.0 F3000 ; Move Z Axis up little to prevent scratching of Heat Bed
G1 X5 Y20 Z0.3 F5000.0 ; Move over to prevent blob squish
G92 E0
G92 E0
G1 F2700 E-5
;LAYER_COUNT:2
;LAYER:0
M107
;MESH:ChiralStructure_Horizontal.stl
G0 F6000 X170.469 Y112.176 Z0.2
;TYPE:WALL-INNER
G1 F2700 E0
G1 F1200 X170.361 Y112.137 E0.00382
G1 X169.743 Y111.91 E0.02572
G1 X169.593 Y111.875 E0.03084
G1 X169.161 Y111.697 E0.04638
G1 X168.951 Y111.872 E0.05547
G1 X168.925 Y111.748 E0.05559
G1 X168.804 Y111.185 E0.07474
G1 X168.631 Y110.598 E0.0951
G1 X168.389 Y110.532 E0.10344
G1 X168.469 Y110.447
G1 X168.796 Y110.098 E0.11935
G1 X168.933 Y109.873 E0.12811
G1 X169.076 Y109.709 E0.13534
G1 X169.536 Y109.326 E0.15525
G1 X169.496 Y109.099 E0.16292
G1 X169.604 Y109.138
G1 X170.222 Y109.365 E0.18482
G1 X170.377 Y109.402 E0.19012
G1 X170.802 Y109.577 E0.2054
G1 X171.013 Y109.402 E0.21452
G1 X171.039 Y109.526 E0.21465
G1 X171.163 Y110.102 E0.23424
G1 X171.225 Y110.261 E0.23992
G1 X171.332 Y110.733 E0.25602
G1 X171.575 Y110.804 E0.26444
G1 X171.49 Y110.889 E0.26449
G1 X171.113 Y111.269 E0.28229
G1 X170.889 Y111.566 E0.29467
G1 X170.429 Y111.949 E0.31458
G1 X170.469 Y112.176 E0.31844
G0 F6000 X170.784 Y112.435
G0 X179.681 Y115.84
G0 X179.741 Y116.182
G0 X179.327 Y117.046
G1 F1200 X179.576 Y116.709 E0.33238
G1 X180.036 Y116.326 E0.35228
G1 X179.996 Y116.099 E0.35995
G1 X180.104 Y116.138
G1 X180.722 Y116.365 E0.38185
G1 X181.073 Y116.482 E0.39415
G1 X181.408 Y116.728 E0.40798
G1 X181.652 Y117.074 E0.42206
G1 X181.767 Y117.449 E0.4351
G1 X181.766 Y117.832 E0.44784
G1 X181.638 Y118.228 E0.46169
G1 X181.392 Y118.563 E0.47551
G1 X181.04 Y118.809 E0.48979
G1 X180.676 Y118.922 E0.50247
G1 X180.288 Y118.921 E0.51537
G1 X179.892 Y118.793 E0.52922
G1 X179.553 Y118.543 E0.54323
G1 X179.313 Y118.203 E0.55707
G1 X179.139 Y117.765 E0.57274
G1 X179.177 Y117.726 E0.57455
G1 X179.2 Y117.439 E0.58413
G1 X179.327 Y117.046 E0.59787
G0 F6000 X178.923 Y117.609
G0 X171.935 Y124.632
G0 X171.556 Y124.521
G0 X170.839 Y123.723
G0 X169.496 Y123.098
G1 F1200 X169.605 Y123.138 E0.60173
G1 X170.204 Y123.358 E0.62295
G1 X170.816 Y123.566 E0.64445
G1 X171.013 Y123.402 E0.65298
G1 X171.037 Y123.518 E0.65298
G1 X171.163 Y124.102 E0.67285
G1 X171.225 Y124.261 E0.67853
G1 X171.332 Y124.733 E0.69462
G1 X171.575 Y124.804 E0.70304
G1 X171.49 Y124.889 E0.7031
G1 X171.113 Y125.269 E0.7209
G1 X170.889 Y125.566 E0.73327
G1 X170.429 Y125.949 E0.75318
G1 X170.469 Y126.176 E0.76085
G1 X170.361 Y126.137
G1 X169.743 Y125.91 E0.78275
G1 X169.593 Y125.875 E0.78787
G1 X169.161 Y125.697 E0.80341
G1 X168.951 Y125.872 E0.8125
G1 X168.925 Y125.748 E0.81262
G1 X168.804 Y125.185 E0.83177
G1 X168.631 Y124.598 E0.85213
G1 X168.389 Y124.532 E0.86047
G1 X168.469 Y124.447
G1 X168.796 Y124.098 E0.87638
G1 X168.933 Y123.873 E0.88514
G1 X169.076 Y123.709 E0.89238
G1 X169.536 Y123.326 E0.91228
G1 X169.496 Y123.098 E0.91616
G1 F2700 E-4.08384
G0 F6000 X170.894 Y123.749
G0 X171.613 Y124.606
G0 X171.67 Y124.415
;TYPE:WALL-OUTER
G1 F2700 E0.91616
G1 F1200 X171.897 Y124.481 E0.92402
G1 X178.79 Y117.548 E1.24919
G1 X178.803 Y117.38 E1.2548
G1 X178.865 Y117.118 E1.26375
G1 X178.97 Y116.862 E1.27295
G1 X179.111 Y116.633 E1.2819
G1 X179.292 Y116.425 E1.29107
G1 X179.602 Y116.167 E1.30448
G1 X179.562 Y115.939 E1.31218
G1 X169.628 Y112.294 E1.66413
G1 X169.467 Y112.256 E1.66963
G1 X169.232 Y112.159 E1.67809
G1 X169.046 Y112.314 E1.68614
G1 X171.547 Y123.986 E2.08316
G1 X171.609 Y124.144 E2.08881
G1 X171.67 Y124.415 E2.09805
G0 F6000 X171.613 Y124.606
G0 X170.717 Y126.054
G0 X170.784 Y126.435
G0 X179.681 Y129.84
G0 X179.748 Y130.221
G0 X179.081 Y131.345
G0 X179.553 Y132.543
;TYPE:WALL-INNER
G1 F1200 X179.313 Y132.203 E2.11189
G1 X179.139 Y131.765 E2.12757
G1 X179.177 Y131.726 E2.12938
G1 X179.2 Y131.439 E2.13895
G1 X179.327 Y131.046 E2.15269
G1 X179.576 Y130.709 E2.16663
G1 X180.036 Y130.326 E2.18653
G1 X179.996 Y130.099 E2.1942
G1 X180.104 Y130.138
G1 X180.722 Y130.365 E2.2161
G1 X181.073 Y130.482 E2.2284
G1 X181.408 Y130.728 E2.24223
G1 X181.652 Y131.074 E2.25631
G1 X181.767 Y131.449 E2.26936
G1 X181.766 Y131.832 E2.28209
G1 X181.638 Y132.228 E2.29594
G1 X181.392 Y132.563 E2.30976
G1 X181.04 Y132.809 E2.32404
G1 X180.676 Y132.922 E2.33672
G1 X180.288 Y132.921 E2.34962
G1 X179.892 Y132.793 E2.36347
G1 X179.553 Y132.543 E2.37748
G0 F6000 X178.876 Y131.855
G0 X171.935 Y138.632
G0 X171.594 Y138.533
G0 X171.013 Y137.402
G1 F1200 X171.039 Y137.526 E2.38169
G1 X171.163 Y138.102 E2.40129
G1 X171.225 Y138.261 E2.40696
G1 X171.332 Y138.733 E2.42306
G1 X171.575 Y138.804 E2.43148
G1 X171.49 Y138.889 E2.43153
G1 X171.113 Y139.269 E2.44934
G1 X170.889 Y139.566 E2.46171
G1 X170.429 Y139.949 E2.48162
G1 X170.469 Y140.176 E2.48929
G1 X170.361 Y140.137
G1 X169.743 Y139.91 E2.51118
G1 X169.593 Y139.875 E2.51631
G1 X169.161 Y139.697 E2.53185
G1 X168.951 Y139.872 E2.54094
G1 X168.925 Y139.748 E2.54106
G1 X168.804 Y139.185 E2.56021
G1 X168.631 Y138.598 E2.58056
G1 X168.389 Y138.532 E2.58891
G1 X168.469 Y138.447
G1 X168.796 Y138.098 E2.60481
G1 X168.933 Y137.873 E2.61357
G1 X169.076 Y137.709 E2.62081
G1 X169.536 Y137.326 E2.64072
G1 X169.496 Y137.099 E2.64839
G1 X169.604 Y137.138
G1 X170.222 Y137.365 E2.67028
G1 X170.377 Y137.402 E2.67558
G1 X170.802 Y137.577 E2.69087
G1 X171.013 Y137.402 E2.69592
G0 F6000 X171.613 Y138.606
G0 X171.67 Y138.415
;TYPE:WALL-OUTER
G1 F1200 X171.897 Y138.481 E2.70378
G1 X178.79 Y131.548 E3.02895
G1 X178.803 Y131.38 E3.03455
G1 X178.865 Y131.118 E3.04351
G1 X178.97 Y130.862 E3.05271
G1 X179.111 Y130.633 E3.06166
G1 X179.292 Y130.425 E3.07083
G1 X179.602 Y130.167 E3.08424
G1 X179.562 Y129.939 E3.09194
G1 X169.628 Y126.294 E3.44389
G1 X169.467 Y126.256 E3.44939
G1 X169.232 Y126.159 E3.45784
G1 X169.046 Y126.314 E3.4659
G1 X171.547 Y137.986 E3.86292
G1 X171.609 Y138.144 E3.86857
G1 X171.67 Y138.415 E3.87781
G1 F2700 E-1.12219
G0 F6000 X171.613 Y138.606
G0 X170.763 Y139.449
G0 X170.217 Y139.897
G0 X168.593 Y139.446
G0 X168.417 Y138.815
G0 X168.035 Y138.71
G0 X161.43 Y145.564
G0 X161.044 Y145.457
G0 X159.794 Y144.115
G0 X148.21 Y140.005
G0 X147.898 Y140.264
G0 X150.066 Y151.011
G0 X149.756 Y151.269
G0 X137.372 Y146.731
G0 X136.876 Y145.855
G0 X129.935 Y152.632
G0 X129.556 Y152.521
G0 X128.295 Y151.115
G0 X126.586 Y151.94
G0 X119.43 Y159.564
G0 X119.044 Y159.457
G0 X117.794 Y158.115
G0 X106.21 Y154.005
G0 X105.417 Y152.815
G0 X105.035 Y152.71
G0 X98.43 Y159.564
G0 X97.534 Y159.242
G0 X97.283 Y158.847
G0 X96.994 Y158.636
G0 X96.248 Y158.378
G0 X95.703 Y158.825
G0 X87.935 Y166.632
G0 X87.556 Y166.521
G0 X86.295 Y165.115
G0 X74.372 Y160.731
G0 X73.876 Y159.855
G0 X65.469 Y168.176
;TYPE:WALL-INNER
G1 F2700 E3.87781
G1 F1200 X65.361 Y168.137 E3.88162
G1 X64.743 Y167.91 E3.90352
G1 X64.593 Y167.875 E3.90865
G1 X64.161 Y167.697 E3.92419
G1 X63.951 Y167.872 E3.93328
G1 X63.925 Y167.748 E3.93339
G1 X63.804 Y167.185 E3.95255
G1 X63.631 Y166.598 E3.9729
G1 X63.389 Y166.532 E3.98124
G1 X63.469 Y166.447
G1 X63.796 Y166.098 E3.99715
G1 X63.933 Y165.873 E4.00591
G1 X64.076 Y165.709 E4.01315
G1 X64.536 Y165.326 E4.03306
G1 X64.496 Y165.099 E4.04073
G1 X64.604 Y165.138
G1 X65.222 Y165.365 E4.06262
G1 X65.377 Y165.402 E4.06792
G1 X65.802 Y165.577 E4.08321
G1 X66.013 Y165.402 E4.09233
G1 X66.039 Y165.526 E4.09245
G1 X66.163 Y166.102 E4.11205
G1 X66.225 Y166.261 E4.11772
G1 X66.332 Y166.733 E4.13382
G1 X66.575 Y166.804 E4.14224
G1 X66.49 Y166.889 E4.1423
G1 X66.113 Y167.269 E4.1601
G1 X65.889 Y167.566 E4.17247
G1 X65.429 Y167.949 E4.19238
G1 X65.469 Y168.176 E4.19624
G0 F6000 X65.784 Y168.435
G0 X74.681 Y171.84
G0 X74.741 Y172.182
G0 X74.327 Y173.046
G1 F1200 X74.576 Y172.709 E4.21018
G1 X75.036 Y172.326 E4.23009
G1 X74.996 Y172.099 E4.23776
G1 X75.104 Y172.138
G1 X75.722 Y172.365 E4.25965
G1 X76.073 Y172.482 E4.27196
G1 X76.408 Y172.728 E4.28578
G1 X76.653 Y173.076 E4.29994
G1 X76.725 Y173.26 E4.30651
G1 X76.817 Y173.671 E4.32052
G1 X77.076 Y173.742 E4.32945
G1 X76.991 Y173.833 E4.32955
G1 X76.669 Y174.177 E4.34522
G1 X76.532 Y174.402 E4.35399
G1 X76.389 Y174.566 E4.36122
G1 X75.929 Y174.949 E4.38113
G1 X75.969 Y175.176 E4.3888
G1 X75.861 Y175.137
G1 X75.243 Y174.91 E4.4107
G1 X74.892 Y174.793 E4.423
G1 X74.553 Y174.543 E4.43701
G1 X74.313 Y174.203 E4.45085
G1 X74.139 Y173.765 E4.46653
G1 X74.177 Y173.726 E4.46834
G1 X74.2 Y173.439 E4.47792
G1 X74.327 Y173.046 E4.49165
G0 F6000 X73.923 Y173.609
G0 X66.935 Y180.632
G0 X66.556 Y180.521
G0 X65.842 Y179.725
G0 X64.496 Y179.099
G1 F1200 X64.604 Y179.138 E4.49547
G1 X65.222 Y179.365 E4.51737
G1 X65.377 Y179.402 E4.52267
G1 X65.802 Y179.577 E4.53796
G1 X66.013 Y179.402 E4.54707
G1 X66.039 Y179.526 E4.5472
G1 X66.163 Y180.102 E4.5668
G1 X66.225 Y180.261 E4.57247
G1 X66.332 Y180.733 E4.58857
G1 X66.575 Y180.804 E4.59699
G1 X66.49 Y180.889 E4.59704
G1 X66.113 Y181.269 E4.61485
G1 X65.892 Y181.563 E4.62708
G1 X65.727 Y181.7 E4.63421
G1 X65.298 Y181.953 E4.65078
G1 X65.538 Y182.838 E4.68128
G1 X85.422 Y182.838 E5.34262
G1 X85.671 Y181.965 E5.37281
G1 X85.218 Y181.687 E5.39049
G1 X84.916 Y181.379 E5.40484
G1 X84.739 Y181.013 E5.41836
G1 X84.683 Y180.637 E5.43101
G1 X84.747 Y180.241 E5.44435
G1 X84.935 Y179.871 E5.45815
G1 X85.076 Y179.709 E5.46529
G1 X85.536 Y179.326 E5.4852
G1 X85.496 Y179.099 E5.49287
G1 X85.604 Y179.138
G1 X86.222 Y179.365 E5.51477
G1 X86.377 Y179.402 E5.52007
G1 X86.802 Y179.577 E5.53535
G1 X87.013 Y179.402 E5.54447
G1 X87.039 Y179.526 E5.5446
G1 X87.163 Y180.102 E5.56419
G1 X87.225 Y180.261 E5.56987
G1 X87.332 Y180.733 E5.58597
G1 X87.575 Y180.804 E5.59439
G1 X87.49 Y180.889 E5.59444
G1 X87.113 Y181.269 E5.61224
G1 X86.892 Y181.563 E5.62448
G1 X86.727 Y181.7 E5.63161
G1 X86.298 Y181.953 E5.64818
G1 X86.538 Y182.838 E5.67867
G1 X106.422 Y182.838 E6.34002
G1 X106.671 Y181.965 E6.37021
G1 X106.218 Y181.687 E6.38789
G1 X105.916 Y181.379 E6.40224
G1 X105.739 Y181.013 E6.41576
G1 X105.683 Y180.637 E6.4284
G1 X105.747 Y180.241 E6.44174
G1 X105.935 Y179.871 E6.45555
G1 X106.076 Y179.709 E6.46269
G1 X106.536 Y179.326 E6.4826
G1 X106.496 Y179.098 E6.4903
G1 X106.605 Y179.138 E6.49034
G1 X107.204 Y179.358 E6.51157
G1 X107.816 Y179.566 E6.53307
G1 X108.013 Y179.402 E6.54159
G1 X108.037 Y179.518 E6.5416
G1 X108.163 Y180.102 E6.56147
G1 X108.225 Y180.261 E6.56714
G1 X108.332 Y180.733 E6.58324
G1 X108.575 Y180.804 E6.59166
G1 X108.49 Y180.889 E6.59171
G1 X108.113 Y181.269 E6.60952
G1 X107.892 Y181.563 E6.62175
G1 X107.727 Y181.7 E6.62888
G1 X107.298 Y181.953 E6.64545
G1 X107.538 Y182.838 E6.67595
G1 X127.422 Y182.838 E7.33729
G1 X127.671 Y181.965 E7.36749
G1 X127.218 Y181.687 E7.38516
G1 X126.916 Y181.379 E7.39951
G1 X126.739 Y181.013 E7.41303
G1 X126.683 Y180.637 E7.42568
G1 X126.747 Y180.241 E7.43902
G1 X126.935 Y179.871 E7.45282
G1 X127.076 Y179.709 E7.45996
G1 X127.536 Y179.326 E7.47987
G1 X127.496 Y179.099 E7.48754
G1 X127.604 Y179.138
G1 X128.222 Y179.365 E7.50944
G1 X128.377 Y179.402 E7.51474
G1 X128.802 Y179.577 E7.53002
G1 X129.013 Y179.402 E7.53914
G1 X129.039 Y179.526 E7.53927
G1 X129.163 Y180.102 E7.55886
G1 X129.225 Y180.261 E7.56454
G1 X129.332 Y180.733 E7.58064
G1 X129.575 Y180.804 E7.58906
G1 X129.49 Y180.889 E7.58911
G1 X129.113 Y181.269 E7.60691
G1 X128.892 Y181.563 E7.61915
G1 X128.727 Y181.7 E7.62628
G1 X128.298 Y181.953 E7.64285
G1 X128.538 Y182.838 E7.67334
G1 X148.422 Y182.838 E8.33469
G1 X148.671 Y181.965 E8.36488
G1 X148.218 Y181.687 E8.38256
G1 X147.916 Y181.379 E8.39691
G1 X147.739 Y181.013 E8.41043
G1 X147.683 Y180.637 E8.42307
G1 X147.747 Y180.241 E8.43641
G1 X147.935 Y179.871 E8.45022
G1 X148.076 Y179.709 E8.45736
G1 X148.536 Y179.326 E8.47727
G1 X148.496 Y179.099 E8.48494
G1 X148.604 Y179.138
G1 X149.222 Y179.365 E8.50683
G1 X149.377 Y179.402 E8.51213
G1 X149.802 Y179.577 E8.52742
G1 X150.013 Y179.402 E8.53654
G1 X150.039 Y179.526 E8.53666
G1 X150.163 Y180.102 E8.55626
G1 X150.225 Y180.261 E8.56194
G1 X150.332 Y180.733 E8.57803
G1 X150.575 Y180.804 E8.58645
G1 X150.49 Y180.889 E8.58651
G1 X150.113 Y181.269 E8.60431
G1 X149.892 Y181.563 E8.61654
G1 X149.727 Y181.7 E8.62368
G1 X149.298 Y181.953 E8.64024
G1 X149.538 Y182.838 E8.67074
G1 X169.422 Y182.838 E9.33209
G1 X169.671 Y181.965 E9.36228
G1 X169.218 Y181.687 E9.37996
G1 X168.916 Y181.379 E9.3943
G1 X168.739 Y181.013 E9.40783
G1 X168.683 Y180.637 E9.42047
G1 X168.747 Y180.241 E9.43381
G1 X168.935 Y179.871 E9.44762
G1 X169.076 Y179.709 E9.45476
G1 X169.536 Y179.326 E9.47467
G1 X169.496 Y179.099 E9.48233
G1 X169.604 Y179.138
G1 X170.222 Y179.365 E9.50423
G1 X170.377 Y179.402 E9.50953
G1 X170.802 Y179.577 E9.52482
G1 X171.013 Y179.402 E9.53394
G1 X171.039 Y179.526 E9.53406
G1 X171.163 Y180.102 E9.55366
G1 X171.225 Y180.261 E9.55933
G1 X171.332 Y180.733 E9.57543
G1 X171.575 Y180.804 E9.58385
G1 X171.49 Y180.889 E9.5839
G1 X171.113 Y181.269 E9.60171
G1 X170.892 Y181.563 E9.61394
G1 X170.727 Y181.7 E9.62107
G1 X170.298 Y181.953 E9.63764
G1 X170.538 Y182.838 E9.66814
G1 X181.9 Y182.838 E10.04604
G1 X181.9 Y191.638 E10.33873
G1 X53.1 Y191.638 E14.62263
G1 X53.1 Y182.838 E14.91532
G1 X64.422 Y182.838 E15.29189
G1 X64.671 Y181.965 E15.32209
G1 X64.218 Y181.687 E15.33977
G1 X63.916 Y181.379 E15.35411
G1 X63.739 Y181.013 E15.36764
G1 X63.683 Y180.637 E15.38028
G1 X63.747 Y180.241 E15.39362
G1 X63.935 Y179.871 E15.40742
G1 X64.076 Y179.709 E15.41457
G1 X64.536 Y179.326 E15.43448
G1 X64.496 Y179.099 E15.43834
G1 F2700 E10.43834
G0 F6000 X65.892 Y179.748
G0 X65.973 Y180.09
G0 X66.84 Y180.673
G0 X66.897 Y180.481
;TYPE:WALL-OUTER
G1 F2700 E15.43834
G1 F1200 X73.79 Y173.548 E15.76351
G1 X73.803 Y173.38 E15.76911
G1 X73.865 Y173.118 E15.77807
G1 X73.97 Y172.862 E15.78727
G1 X74.111 Y172.633 E15.79621
G1 X74.292 Y172.425 E15.80539
G1 X74.602 Y172.167 E15.8188
G1 X74.562 Y171.939 E15.8265
G1 X64.628 Y168.294 E16.17844
G1 X64.467 Y168.256 E16.18395
G1 X64.232 Y168.159 E16.1924
G1 X64.046 Y168.314 E16.20045
G1 X66.547 Y179.986 E16.59748
G1 X66.609 Y180.144 E16.60312
G1 X66.67 Y180.415 E16.61236
G1 X66.897 Y180.481 E16.62023
G0 F6000 X66.84 Y180.673
G0 X65.972 Y180.081
G0 X65.892 Y179.748
G0 X63.143 Y178.292
G0 X55.284 Y175.435
G0 X55.224 Y175.093
G0 X56.076 Y173.742
;TYPE:WALL-INNER
G1 F1200 X55.991 Y173.833 E16.62437
G1 X55.669 Y174.177 E16.64004
G1 X55.532 Y174.402 E16.6488
G1 X55.389 Y174.566 E16.65604
G1 X54.929 Y174.949 E16.67595
G1 X54.969 Y175.176 E16.68361
G1 X54.861 Y175.137
G1 X54.243 Y174.91 E16.70551
G1 X53.892 Y174.793 E16.71782
G1 X53.553 Y174.543 E16.73183
G1 X53.315 Y174.207 E16.74552
G1 X53.197 Y173.819 E16.75901
G1 X53.2 Y173.439 E16.77165
G1 X53.327 Y173.046 E16.78539
G1 X53.576 Y172.709 E16.79932
G1 X53.916 Y172.469 E16.81316
G1 X54.301 Y172.352 E16.82655
G1 X54.48 Y172.338 E16.83252
G1 X54.879 Y172.402 E16.84596
G1 X55.249 Y172.59 E16.85976
G1 X55.547 Y172.895 E16.87395
G1 X55.725 Y173.26 E16.88745
G1 X55.817 Y173.671 E16.90146
G1 X56.076 Y173.742 E16.90636
G1 F2700 E11.90636
G0 F6000 X55.217 Y175.054
G0 X55.284 Y175.435
G0 X65.756 Y179.269
G0 X66.046 Y179.115
G0 X65.918 Y178.96
;TYPE:WALL-OUTER
G1 F2700 E16.90636
G1 F1200 X63.416 Y167.284 E17.30352
G1 X63.31 Y166.925 E17.31597
G1 X63.077 Y166.861 E17.32401
G1 X55.989 Y174.421 E17.66869
G1 X55.854 Y174.642 E17.6773
G1 X55.673 Y174.85 E17.68647
G1 X55.363 Y175.108 E17.69989
G1 X55.403 Y175.336 E17.70759
G1 X65.337 Y178.981 E18.05953
G1 X65.5 Y179.019 E18.0651
G1 X65.732 Y179.115 E18.07345
G1 X65.918 Y178.96 E18.0815
G1 F2700 E13.0815
G0 F6000 X66.046 Y179.115
G0 X65.705 Y176.629
G0 X63.898 Y168.264
G0 X64.21 Y168.005
